dragon32/_inc/art.svg

<svg preserveAspectRatio="none" xmlns="http://www.w3.org/2000/svg"><g fill="#1e1e1e"><path d="m559.202 273.755v-33.333l33.335-.002v32.495.84zm32.493-.84v-.843zm-30.811-30.809v29.967h29.971v-29.968z" transform="matrix(.965926 -.258819 .258819 .965926 -46.916834 157.805879)"/><path d="m564.651 268.309v-22.439h22.437v21.597.842zm21.596-.842v-.841zm-19.914-.841h19.073v-19.074h-19.073z" transform="matrix(.965926 -.25882 .25882 .965926 -46.91742 157.806414)"/><path d="m622.486 394.919c-.043 0-.09 0-.143-.003l-63.674-.002s-.004 0-.048.002c-1.285.021-2.148-1.141-2.178-2.341l-7.204-160.238c-.128-1.236-.751-1.749-2.336-1.822v-.838l.594.593-1.188-1.19c.026.026.014-.175.594-.248 2.102-.074 3.933 1.257 4.016 3.416l7.203 160.23c.101.684.254.735.499.756.004 0 .041-.001.074-.001h63.666l.039.003c.021 0 .051.003.087.003.282-.023.228-.04.302-.112.064-.084.145-.345.166-.634l7.202-160.261c.08-2.145 1.916-3.473 4.015-3.399v1.68c-1.584.074-2.209.588-2.336 1.809l-7.204 160.282c-.044.448-.122.962-.445 1.458-.305.493-.949.858-1.637.858-.022.001-.043.001-.064-.001z" transform="matrix(.965926 -.258819 .258819 .965926 -60.607198 163.392346)"/><path d="m494.915 235.228v-118.455h118.452l.002 117.613v.842zm117.613-.842v-.841zm-115.933-.841h115.092l-.002-115.09h-115.088z" transform="matrix(.965926 -.258819 .258819 .965926 -26.670344 149.419428)"/><path d="m515.425 218.326c-1.994-.002-3.607-1.617-3.609-3.607v-77.437c.002-1.993 1.615-3.607 3.609-3.607h77.436c1.991.002 3.606 1.614 3.608 3.607v77.438c-.002 1.992-1.617 3.605-3.608 3.607h-77.436zm-1.926-81.044v77.438c.002 1.061.861 1.922 1.927 1.925h77.435c1.062-.002 1.923-.863 1.925-1.925v-77.438c0-1.062-.863-1.923-1.925-1.924h-77.436c-1.065.001-1.924.862-1.926 1.924z" transform="matrix(.965926 -.258819 .258819 .965926 -26.670462 149.419711)"/><path d="m572.414 198.286h.027c-.007 0-.011 0-.017 0-.003 0-.007 0-.01 0zm-.004 0h-36.61c-2.136-.002-3.865-1.73-3.865-3.863v-36.616s0 0 0-.002c0-2.135 1.732-3.861 3.865-3.863l36.612.002c2.133 0 3.864 1.729 3.864 3.861l.002 36.616h-.002c0 2.124-1.712 3.847-3.835 3.864.047-.001.121-.013.252-.05.126-.014.554-.304.556-.772-.02-.439-.189-.529-.231-.6-.065-.068-.099-.087-.125-.107l-.181.258-.302 1.272h.004c-.002 0-.002 0-.004 0zm0-1.683c1.208-.001 2.183-.977 2.185-2.18v-36.616c-.004-1.206-.977-2.181-2.183-2.182h-36.612c-1.179.001-2.138.933-2.182 2.1l-.002 36.696c.004 1.205.979 2.179 2.184 2.181h36.608.002z" transform="matrix(.965926 -.258819 .258819 .965926 -26.700927 149.4141)"/><path d="m513.751 148.434h22.019l-6.973 6.544 6.21 6.209-1.189 1.189-7.438-7.439 5.139-4.82-16.085-.002v16.084l4.746-5.062 7.752 7.753h.002l-1.191 1.189-6.523-6.526-6.469 6.899z" transform="matrix(.965926 -.258819 .258819 .965926 -23.386103 141.250897)"/><path d="m575.849 151.083-6.523 6.524-1.191-1.189 7.752-7.754 4.746 5.062v-16.082h-16.085l5.141 4.824-7.439 7.437-1.189-1.191 6.21-6.207-6.97-6.544 22.015-.004v22.025z" transform="matrix(.965926 -.258819 .258819 .965926 -18.572158 152.873296)"/><path d="m572.512 203.569 6.975-6.547-6.21-6.206 1.186-1.191 7.44 7.436-5.14 4.825h16.085l-.002-16.084-4.743 5.063-7.753-7.753 1.189-1.191 6.525 6.522 6.464-6.898.003 22.024z" transform="matrix(.965926 -.258819 .258819 .965926 -29.954407 157.587686)"/><path d="m525.969 216.039v-22.019l6.466 6.896 6.524-6.523h.002l1.187 1.189-7.751 7.751-4.746-5.061v16.085h16.084l-5.14-4.824 7.439-7.436 1.188 1.19-6.211 6.205 6.975 6.547z" transform="matrix(.965926 -.258819 .258819 .965926 -34.768478 145.966222)"/><path d="m541.697 192.054c-1.994-.002-3.607-1.616-3.607-3.606v-24.893c0-1.992 1.613-3.606 3.607-3.606l24.89-.001c1.992.001 3.607 1.614 3.608 3.607l-.001 24.891c0 1.991-1.615 3.605-3.608 3.607h-24.889zm-1.926-28.499v24.893c.002 1.06.863 1.921 1.926 1.922h24.89c1.063-.001 1.922-.861 1.924-1.924l.002-24.891c-.002-1.062-.863-1.922-1.926-1.924h-24.89c-1.064.002-1.924.863-1.926 1.924z" transform="matrix(.965926 -.258819 .258819 .965926 -26.670462 149.419711)"/><path d="m544.198 176.06c-.003-.028-.003-.064 0-.109.029-5.469 4.468-9.892 9.943-9.895 5.494.001 9.944 4.452 9.944 9.944h.002c-.002 5.493-4.452 9.944-9.946 9.945-5.472-.001-9.911-4.419-9.943-9.885zm9.943 8.202c4.563-.007 8.255-3.699 8.263-8.263-.009-4.561-3.7-8.254-8.263-8.26-4.563.006-8.254 3.699-8.262 8.26.008 4.566 3.699 8.257 8.262 8.263zm-8.262-8.304c-.003-.066-.009-.084-.012-.09.003.018.009.047.012.09z" transform="matrix(.965926 -.258819 .258819 .965926 -26.670366 149.419257)"/><path d="m565.435 350.24v-1.683h69.909v1.683z" transform="matrix(.965926 -.258819 .258819 .965926 -69.973209 167.297703)"/><path d="m577.872 390.049c-.989-.042-1.616-.058-2.229-.533-.611-.558-.573-1.211-.602-1.7l-1.829-37.064h66.038l-1.828 37.05c-.03.504.008 1.16-.603 1.717-.615.474-1.244.491-2.229.529l-.017-.838v.841zm-.934-1.758c.194.038.517.066.949.075h56.669c.649-.005 1.032-.08 1.144-.121.018-.074.032-.253.04-.513l1.742-35.298h-62.506l1.743 35.308c.005.249.025.425.039.501.035.014.095.033.18.048z" transform="matrix(.965926 -.258819 .258819 .965926 -75.210086 169.525066)"/><path d="m529.609 181.914c0-4.37 1.106-8.489 3.049-12.082l1.479.8c-1.815 3.357-2.844 7.196-2.844 11.282 0 4.463 1.227 8.633 3.365 12.199l-1.443.866c-2.288-3.82-3.606-8.291-3.606-13.065z" transform="matrix(.965926 -.258819 .258819 .965926 -29.078015 143.941747)"/><path d="m547.527 197.293.83-1.462c3.457 1.962 7.447 3.081 11.708 3.081 4.46 0 8.627-1.228 12.191-3.363h.001l.863 1.441c-3.815 2.286-8.286 3.604-13.055 3.604-4.556.001-8.839-1.2-12.538-3.301z" transform="matrix(.965926 -.258819 .258819 .965926 -32.172118 151.771511)"/><path d="m573.679 182.482c2.215-3.612 3.49-7.856 3.49-12.403 0-4.405-1.197-8.524-3.284-12.06h.001l1.447-.856c2.235 3.785 3.52 8.203 3.52 12.915 0 4.865-1.369 9.416-3.74 13.281z" transform="matrix(.965926 -.258819 .258819 .965926 -24.430999 154.950106)"/><path d="m536.052 156.398s.001 0 0 0zm-.861-1.444c3.808-2.273 8.267-3.581 13.021-3.581 4.656 0 9.025 1.252 12.781 3.439l-.851 1.453c-3.505-2.041-7.58-3.21-11.932-3.21-4.446 0-8.601 1.22-12.159 3.343z" transform="matrix(.965926 -.258819 .258819 .965926 -21.152719 147.100294)"/></g></svg>

<?xml version="1.0" encoding="utf-8"?>
<svg version="1.2" baseProfile="tiny" id="Layer_3" x="0px" y="0px" preserveAspectRatio="none" xmlns="http://www.w3.org/2000/svg">
  <path d="M 559.202 273.755 L 559.202 240.422 L 592.537 240.42 L 592.537 272.915 L 592.537 273.755 L 559.202 273.755 L 559.202 273.755 Z M 591.695 272.915 L 591.695 272.072 L 591.695 272.915 L 591.695 272.915 Z M 560.884 242.106 L 560.884 272.073 L 590.855 272.073 L 590.855 242.105 L 560.884 242.106 L 560.884 242.106 Z" style="fill: rgb(30, 30, 30);" transform="matrix(0.965926, -0.258819, 0.258819, 0.965926, -46.916834, 157.805879)"/>
  <path d="M 564.651 268.309 L 564.651 245.87 L 587.088 245.87 L 587.088 267.467 L 587.088 268.309 L 564.651 268.309 L 564.651 268.309 Z M 586.247 267.467 L 586.247 266.626 L 586.247 267.467 L 586.247 267.467 Z M 566.333 266.626 L 585.406 266.626 L 585.406 247.552 L 566.333 247.552 L 566.333 266.626 L 566.333 266.626 Z" style="fill: rgb(30, 30, 30);" transform="matrix(0.965926, -0.25882, 0.25882, 0.965926, -46.91742, 157.806414)"/>
  <path d="M 622.486 394.919 C 622.443 394.919 622.396 394.919 622.343 394.916 L 622.343 394.916 L 622.343 394.916 L 558.669 394.914 C 558.669 394.914 558.665 394.914 558.621 394.916 L 558.621 394.916 C 557.336 394.937 556.473 393.775 556.443 392.575 L 556.443 392.575 L 549.239 232.337 C 549.111 231.101 548.488 230.588 546.903 230.515 L 546.903 230.515 L 546.903 229.677 L 547.497 230.27 L 546.309 229.08 C 546.335 229.106 546.323 228.905 546.903 228.832 L 546.903 228.832 C 549.005 228.758 550.836 230.089 550.919 232.248 L 550.919 232.248 L 558.122 392.478 C 558.223 393.162 558.376 393.213 558.621 393.234 L 558.621 393.234 C 558.625 393.234 558.662 393.233 558.695 393.233 L 558.695 393.233 L 622.361 393.233 L 622.4 393.236 C 622.421 393.236 622.451 393.239 622.487 393.239 L 622.487 393.239 C 622.769 393.216 622.715 393.199 622.789 393.127 L 622.789 393.127 C 622.853 393.043 622.934 392.782 622.955 392.493 L 622.955 392.493 L 630.157 232.232 C 630.237 230.087 632.073 228.759 634.172 228.833 L 634.172 228.833 L 634.172 230.513 C 632.588 230.587 631.963 231.101 631.836 232.322 L 631.836 232.322 L 624.632 392.604 C 624.588 393.052 624.51 393.566 624.187 394.062 L 624.187 394.062 C 623.882 394.555 623.238 394.92 622.55 394.92 L 622.55 394.92 C 622.528 394.921 622.507 394.921 622.486 394.919 L 622.486 394.919 Z" style="fill: rgb(30, 30, 30);" transform="matrix(0.965926, -0.258819, 0.258819, 0.965926, -60.607198, 163.392346)"/>
  <path d="M 494.915 235.228 L 494.915 116.773 L 613.367 116.773 L 613.369 234.386 L 613.369 235.228 L 494.915 235.228 L 494.915 235.228 Z M 612.528 234.386 L 612.528 233.545 L 612.528 234.386 L 612.528 234.386 Z M 496.595 233.545 L 611.687 233.545 L 611.685 118.455 L 496.597 118.455 L 496.595 233.545 L 496.595 233.545 Z" style="fill: rgb(30, 30, 30);" transform="matrix(0.965926, -0.258819, 0.258819, 0.965926, -26.670344, 149.419428)"/>
  <path d="M 515.425 218.326 C 513.431 218.324 511.818 216.709 511.816 214.719 L 511.816 214.719 L 511.816 137.282 C 511.818 135.289 513.431 133.675 515.425 133.675 L 515.425 133.675 L 592.861 133.675 C 594.852 133.677 596.467 135.289 596.469 137.282 L 596.469 137.282 L 596.469 214.72 C 596.467 216.712 594.852 218.325 592.861 218.327 L 592.861 218.327 L 515.425 218.327 L 515.425 218.326 Z M 513.499 137.282 L 513.499 214.72 C 513.501 215.781 514.36 216.642 515.426 216.645 L 515.426 216.645 L 592.861 216.645 C 593.923 216.643 594.784 215.782 594.786 214.72 L 594.786 214.72 L 594.786 137.282 C 594.786 136.22 593.923 135.359 592.861 135.358 L 592.861 135.358 L 515.425 135.358 C 514.36 135.359 513.501 136.22 513.499 137.282 L 513.499 137.282 Z" style="fill: rgb(30, 30, 30);" transform="matrix(0.965926, -0.258819, 0.258819, 0.965926, -26.670462, 149.419711)"/>
  <path d="M 572.414 198.286 C 572.424 198.286 572.431 198.286 572.441 198.286 L 572.441 198.286 C 572.434 198.286 572.43 198.286 572.424 198.286 L 572.424 198.286 C 572.421 198.286 572.417 198.286 572.414 198.286 L 572.414 198.286 Z M 572.41 198.286 L 535.8 198.286 C 533.664 198.284 531.935 196.556 531.935 194.423 L 531.935 194.423 L 531.935 157.807 L 531.935 157.807 C 531.935 157.807 531.935 157.807 531.935 157.805 L 531.935 157.805 C 531.935 155.67 533.667 153.944 535.8 153.942 L 535.8 153.942 L 572.412 153.944 C 574.545 153.944 576.276 155.673 576.276 157.805 L 576.276 157.805 L 576.278 194.421 L 576.276 194.421 C 576.276 196.545 574.564 198.268 572.441 198.285 L 572.441 198.285 C 572.488 198.284 572.562 198.272 572.693 198.235 L 572.693 198.235 C 572.819 198.221 573.247 197.931 573.249 197.463 L 573.249 197.463 C 573.229 197.024 573.06 196.934 573.018 196.863 L 573.018 196.863 C 572.953 196.795 572.919 196.776 572.893 196.756 L 572.893 196.756 L 572.712 197.014 L 572.41 198.286 C 572.412 198.286 572.412 198.286 572.414 198.286 L 572.414 198.286 C 572.412 198.286 572.412 198.286 572.41 198.286 L 572.41 198.286 L 572.41 198.286 L 572.41 198.286 Z M 572.41 196.603 C 573.618 196.602 574.593 195.626 574.595 194.423 L 574.595 194.423 L 574.595 157.807 C 574.591 156.601 573.618 155.626 572.412 155.625 L 572.412 155.625 L 535.8 155.625 C 534.621 155.626 533.662 156.558 533.618 157.725 L 533.618 157.725 L 533.616 194.421 C 533.62 195.626 534.595 196.6 535.8 196.602 L 535.8 196.602 L 572.408 196.602 L 572.41 196.602 L 572.41 196.603 Z" style="fill: rgb(30, 30, 30);" transform="matrix(0.965926, -0.258819, 0.258819, 0.965926, -26.700927, 149.4141)"/>
  <polygon points="513.751 148.434 535.77 148.434 528.797 154.978 535.007 161.187 533.818 162.376 526.38 154.937 531.519 150.117 515.434 150.115 515.434 166.199 520.18 161.137 527.932 168.89 527.934 168.89 526.743 170.079 520.22 163.553 513.751 170.452" style="fill: rgb(30, 30, 30);" transform="matrix(0.965926, -0.258819, 0.258819, 0.965926, -23.386103, 141.250897)"/>
  <polygon points="575.849 151.083 569.326 157.607 568.135 156.418 575.887 148.664 580.633 153.726 580.633 137.644 564.548 137.644 569.689 142.468 562.25 149.905 561.061 148.714 567.271 142.507 560.301 135.963 582.316 135.959 582.316 157.984" style="fill: rgb(30, 30, 30);" transform="matrix(0.965926, -0.258819, 0.258819, 0.965926, -18.572158, 152.873296)"/>
  <polygon points="572.512 203.569 579.487 197.022 573.277 190.816 574.463 189.625 581.903 197.061 576.763 201.886 592.848 201.886 592.846 185.802 588.103 190.865 580.35 183.112 581.539 181.921 588.064 188.443 594.528 181.545 594.531 203.569" style="fill: rgb(30, 30, 30);" transform="matrix(0.965926, -0.258819, 0.258819, 0.965926, -29.954407, 157.587686)"/>
  <polygon points="525.969 216.039 525.969 194.02 532.435 200.916 538.959 194.393 538.961 194.393 540.148 195.582 532.397 203.333 527.651 198.272 527.651 214.357 543.735 214.357 538.595 209.533 546.034 202.097 547.222 203.287 541.011 209.492 547.986 216.039" style="fill: rgb(30, 30, 30);" transform="matrix(0.965926, -0.258819, 0.258819, 0.965926, -34.768478, 145.966222)"/>
  <path d="M 541.697 192.054 C 539.703 192.052 538.09 190.438 538.09 188.448 L 538.09 188.448 L 538.09 163.555 C 538.09 161.563 539.703 159.949 541.697 159.949 L 541.697 159.949 L 566.587 159.948 C 568.579 159.949 570.194 161.562 570.195 163.555 L 570.195 163.555 L 570.194 188.446 C 570.194 190.437 568.579 192.051 566.586 192.053 L 566.586 192.053 L 541.697 192.053 L 541.697 192.054 Z M 539.771 163.555 L 539.771 188.448 C 539.773 189.508 540.634 190.369 541.697 190.37 L 541.697 190.37 L 566.587 190.37 C 567.65 190.369 568.509 189.509 568.511 188.446 L 568.511 188.446 L 568.513 163.555 C 568.511 162.493 567.65 161.633 566.587 161.631 L 566.587 161.631 L 541.697 161.631 C 540.633 161.633 539.773 162.494 539.771 163.555 L 539.771 163.555 Z" style="fill: rgb(30, 30, 30);" transform="matrix(0.965926, -0.258819, 0.258819, 0.965926, -26.670462, 149.419711)"/>
  <path d="M 544.198 176.06 C 544.195 176.032 544.195 175.996 544.198 175.951 L 544.198 175.951 C 544.227 170.482 548.666 166.059 554.141 166.056 L 554.141 166.056 C 559.635 166.057 564.085 170.508 564.085 176 L 564.085 176 L 564.087 176 C 564.085 181.493 559.635 185.944 554.141 185.945 L 554.141 185.945 C 548.669 185.944 544.23 181.526 544.198 176.06 L 544.198 176.06 Z M 554.141 184.262 C 558.704 184.255 562.396 180.563 562.404 175.999 L 562.404 175.999 C 562.395 171.438 558.704 167.745 554.141 167.739 L 554.141 167.739 C 549.578 167.745 545.887 171.438 545.879 175.999 L 545.879 175.999 C 545.887 180.565 549.578 184.256 554.141 184.262 L 554.141 184.262 Z M 545.879 175.958 C 545.876 175.892 545.87 175.874 545.867 175.868 L 545.867 175.868 C 545.87 175.886 545.876 175.915 545.879 175.958 L 545.879 175.958 Z" style="fill: rgb(30, 30, 30);" transform="matrix(0.965926, -0.258819, 0.258819, 0.965926, -26.670366, 149.419257)"/>
  <polygon points="565.435 350.24 565.435 348.557 635.344 348.557 635.344 350.24" style="fill: rgb(30, 30, 30);" transform="matrix(0.965926, -0.258819, 0.258819, 0.965926, -69.973209, 167.297703)"/>
  <path d="M 577.872 390.049 C 576.883 390.007 576.256 389.991 575.643 389.516 L 575.643 389.516 C 575.032 388.958 575.07 388.305 575.041 387.816 L 575.041 387.816 L 573.212 350.752 L 639.25 350.752 L 637.422 387.802 C 637.392 388.306 637.43 388.962 636.819 389.519 L 636.819 389.519 C 636.204 389.993 635.575 390.01 634.59 390.048 L 634.59 390.048 L 634.573 389.21 L 634.573 390.051 L 577.872 390.049 L 577.872 390.049 Z M 576.938 388.291 C 577.132 388.329 577.455 388.357 577.887 388.366 L 577.887 388.366 L 634.556 388.366 C 635.205 388.361 635.588 388.286 635.7 388.245 L 635.7 388.245 C 635.718 388.171 635.732 387.992 635.74 387.732 L 635.74 387.732 L 637.482 352.434 L 574.976 352.434 L 576.719 387.742 C 576.724 387.991 576.744 388.167 576.758 388.243 L 576.758 388.243 C 576.793 388.257 576.853 388.276 576.938 388.291 L 576.938 388.291 Z" style="fill: rgb(30, 30, 30);" transform="matrix(0.965926, -0.258819, 0.258819, 0.965926, -75.210086, 169.525066)"/>
  <path d="M 529.609 181.914 C 529.609 177.544 530.715 173.425 532.658 169.832 L 532.658 169.832 L 534.137 170.632 C 532.322 173.989 531.293 177.828 531.293 181.914 L 531.293 181.914 C 531.293 186.377 532.52 190.547 534.658 194.113 L 534.658 194.113 L 533.215 194.979 C 530.927 191.159 529.609 186.688 529.609 181.914 L 529.609 181.914 Z" style="fill: rgb(30, 30, 30);" transform="matrix(0.965926, -0.258819, 0.258819, 0.965926, -29.078015, 143.941747)"/>
  <path d="M 547.527 197.293 L 548.357 195.831 C 551.814 197.793 555.804 198.912 560.065 198.912 L 560.065 198.912 C 564.525 198.912 568.692 197.684 572.256 195.549 L 572.256 195.549 L 572.257 195.549 L 573.12 196.99 C 569.305 199.276 564.834 200.594 560.065 200.594 L 560.065 200.594 C 555.509 200.595 551.226 199.394 547.527 197.293 L 547.527 197.293 Z" style="fill: rgb(30, 30, 30);" transform="matrix(0.965926, -0.258819, 0.258819, 0.965926, -32.172118, 151.771511)"/>
  <path d="M 573.679 182.482 C 575.894 178.87 577.169 174.626 577.169 170.079 L 577.169 170.079 C 577.169 165.674 575.972 161.555 573.885 158.019 L 573.885 158.019 L 573.886 158.019 L 575.333 157.163 C 577.568 160.948 578.853 165.366 578.853 170.078 L 578.853 170.078 C 578.853 174.943 577.484 179.494 575.113 183.359 L 575.113 183.359 L 573.679 182.482 L 573.679 182.482 Z" style="fill: rgb(30, 30, 30);" transform="matrix(0.965926, -0.258819, 0.258819, 0.965926, -24.430999, 154.950106)"/>
  <path d="M 536.052 156.398 C 536.052 156.398 536.053 156.398 536.052 156.398 L 536.052 156.398 L 536.052 156.398 L 536.052 156.398 L 536.052 156.398 Z M 535.191 154.954 C 538.999 152.681 543.458 151.373 548.212 151.373 L 548.212 151.373 C 552.868 151.373 557.237 152.625 560.993 154.812 L 560.993 154.812 L 560.142 156.265 C 556.637 154.224 552.562 153.055 548.21 153.055 L 548.21 153.055 C 543.764 153.055 539.609 154.275 536.051 156.398 L 536.051 156.398 L 535.191 154.954 L 535.191 154.954 Z" style="fill: rgb(30, 30, 30);" transform="matrix(0.965926, -0.258819, 0.258819, 0.965926, -21.152719, 147.100294)"/>
</svg>
